;FLAVOR:Marlin
;TIME:863
;Filament used: 0.796668m
;Layer height: 0.2
;Generated with Cura_SteamEngine 3.6.0
M140 S60
M105
M190 S60
M104 S200
M105
M109 S200
M82 ;absolute extrusion mode
; Ender 3 Custom Start G-code
G28 ; Home all axes
G92 E0 ; Reset Extruder
G1 Z2.0 F3000 ; Move Z Axis up little to prevent scratching of Heat Bed
G1 X0.1 Y20 Z0.3 F5000.0 ; Move to start position
G1 X0.1 Y200.0 Z0.3 F1500.0 E15 ; Draw the first line
G1 X0.4 Y200.0 Z0.3 F5000.0 ; Move to side a little
G1 X0.4 Y20 Z0.3 F1500.0 E30 ; Draw the second line
G92 E0 ; Reset Extruder
G1 Z2.0 F3000 ; Move Z Axis up little to prevent scratching of Heat Bed
; End of custom start GCode
G92 E0
G1 F2400 E-5
;LAYER_COUNT:48
;LAYER:0
M107
M204 S5000
M205 X30 Y30
G0 F3600 X98.712 Y104.769 Z0.2
M204 S500
M205 X20 Y20
;TYPE:SKIRT
G1 F2400 E0
G1 F1800 X99.27 Y104.321 E0.0238
G1 X99.874 Y103.938 E0.04759
G1 X100.704 Y103.55 E0.07806
G1 X101.007 Y103.434 E0.08885
G1 X101.688 Y103.216 E0.11263
G1 X102.389 Y103.075 E0.13642
G1 X103.295 Y103.011 E0.16663
G1 X131.706 Y103.009 E1.11158
G1 X132.42 Y103.049 E1.13536
G1 X133.125 Y103.168 E1.15914
G1 X133.791 Y103.358 E1.18218
G1 X134.058 Y103.45 E1.19157
G1 X134.72 Y103.721 E1.21536
G1 X135.348 Y104.063 E1.23915
G1 X135.934 Y104.474 E1.26295
G1 X136.47 Y104.947 E1.28673
G1 X136.95 Y105.477 E1.31051
G1 X137.397 Y106.105 E1.33615
G1 X137.603 Y106.434 E1.34906
G1 X137.949 Y107.06 E1.37285
G1 X138.222 Y107.721 E1.39664
G1 X138.419 Y108.409 E1.42044
G1 X138.539 Y109.114 E1.44423
G1 X138.579 Y109.831 E1.46811
G1 X138.576 Y125.236 E1.98048
G1 X138.536 Y125.95 E2.00427
G1 X138.416 Y126.656 E2.02809
G1 X138.219 Y127.343 E2.05186
G1 X137.946 Y128.004 E2.07564
G1 X137.405 Y128.926 E2.1112
G1 X137.237 Y129.164 E2.12089
G1 X136.792 Y129.724 E2.14468
G1 X136.288 Y130.231 E2.16846
G1 X135.73 Y130.679 E2.19226
G1 X135.126 Y131.062 E2.21604
G1 X134.296 Y131.45 E2.24652
G1 X133.993 Y131.566 E2.25731
G1 X133.312 Y131.784 E2.28109
G1 X132.611 Y131.925 E2.30487
G1 X131.705 Y131.989 E2.33508
G1 X103.314 Y131.991 E3.27937
G1 X102.6 Y131.951 E3.30316
G1 X101.895 Y131.832 E3.32694
G1 X101.4 Y131.698 E3.34399
G1 X101.132 Y131.614 E3.35333
G1 X100.462 Y131.362 E3.37714
G1 X99.825 Y131.037 E3.40093
G1 X99.228 Y130.644 E3.4247
G1 X98.679 Y130.185 E3.4485
G1 X98.034 Y129.487 E3.48011
G1 X97.814 Y129.21 E3.49187
G1 X97.401 Y128.626 E3.51567
G1 X97.056 Y128 E3.53944
G1 X96.783 Y127.339 E3.56322
G1 X96.586 Y126.651 E3.58703
G1 X96.466 Y125.946 E3.61081
G1 X96.426 Y125.231 E3.63463
G1 X96.424 Y109.766 E4.149
G1 X96.464 Y109.052 E4.17278
G1 X96.583 Y108.346 E4.1966
G1 X96.78 Y107.659 E4.22037
G1 X97.053 Y106.998 E4.24415
G1 X97.595 Y106.074 E4.27978
G1 X97.763 Y105.836 E4.28947
G1 X98.208 Y105.276 E4.31326
G1 X98.712 Y104.769 E4.33704
M204 S5000
M205 X30 Y30
G0 F3600 X99.012 Y105.037
M204 S500
M205 X20 Y20
G1 F1800 X99.556 Y104.608 E4.36008
G1 X100.146 Y104.245 E4.38312
G1 X100.847 Y103.924 E4.40877
G1 X101.15 Y103.808 E4.41956
G1 X101.81 Y103.598 E4.44259
G1 X102.49 Y103.465 E4.46564
G1 X103.295 Y103.411 E4.49247
G1 X131.706 Y103.409 E5.43743
G1 X132.397 Y103.449 E5.46045
G1 X133.079 Y103.568 E5.48348
G1 X133.661 Y103.736 E5.50362
G1 X133.928 Y103.828 E5.51302
G1 X134.568 Y104.091 E5.53603
G1 X135.174 Y104.426 E5.55906
G1 X135.738 Y104.829 E5.58212
G1 X136.251 Y105.294 E5.60514
G1 X136.707 Y105.815 E5.62817
G1 X137.058 Y106.317 E5.64855
G1 X137.264 Y106.646 E5.66146
G1 X137.597 Y107.253 E5.68448
G1 X137.858 Y107.895 E5.70753
G1 X138.043 Y108.562 E5.73056
G1 X138.151 Y109.246 E5.75359
G1 X138.179 Y109.831 E5.77307
G1 X138.176 Y125.236 E6.28544
G1 X138.136 Y125.928 E6.30849
G1 X138.016 Y126.61 E6.33153
G1 X137.819 Y127.274 E6.35456
G1 X137.547 Y127.91 E6.37757
G1 X137.078 Y128.695 E6.40798
G1 X136.91 Y128.933 E6.41767
G1 X136.478 Y129.475 E6.44072
G1 X135.988 Y129.963 E6.46373
G1 X135.444 Y130.392 E6.48677
G1 X134.854 Y130.755 E6.50981
G1 X134.153 Y131.076 E6.53545
G1 X133.85 Y131.192 E6.54624
G1 X133.19 Y131.402 E6.56928
G1 X132.51 Y131.535 E6.59232
G1 X131.705 Y131.589 E6.61916
G1 X103.314 Y131.591 E7.56345
G1 X102.623 Y131.551 E7.58647
G1 X101.941 Y131.432 E7.6095
G1 X101.519 Y131.316 E7.62405
G1 X101.251 Y131.232 E7.63339
G1 X100.604 Y130.987 E7.6564
G1 X99.988 Y130.67 E7.67945
G1 X99.414 Y130.283 E7.70247
G1 X98.888 Y129.832 E7.72552
G1 X98.348 Y129.239 E7.75219
G1 X98.128 Y128.962 E7.76396
G1 X97.729 Y128.395 E7.78702
G1 X97.398 Y127.787 E7.81004
G1 X97.14 Y127.144 E7.83308
G1 X96.957 Y126.476 E7.85612
G1 X96.852 Y125.792 E7.87914
G1 X96.826 Y125.231 E7.89782
G1 X96.824 Y109.766 E8.41218
G1 X96.864 Y109.074 E8.43524
G1 X96.983 Y108.392 E8.45827
G1 X97.18 Y107.728 E8.4813
G1 X97.453 Y107.092 E8.50432
G1 X97.922 Y106.305 E8.53479
G1 X98.09 Y106.067 E8.54448
G1 X98.522 Y105.525 E8.56753
G1 X99.012 Y105.037 E8.59054
M204 S5000
M205 X30 Y30
G0 F3600 X99.312 Y105.306
M204 S500
M205 X20 Y20
G1 F1800 X99.842 Y104.897 E8.6128
G1 X100.416 Y104.555 E8.63503
G1 X100.99 Y104.297 E8.65596
G1 X101.293 Y104.181 E8.66675
G1 X101.931 Y103.98 E8.689
G1 X102.588 Y103.856 E8.71123
G1 X103.295 Y103.811 E8.7348
G1 X131.706 Y103.809 E9.67975
G1 X132.373 Y103.849 E9.70197
G1 X133.032 Y103.968 E9.72425
G1 X133.53 Y104.114 E9.74151
G1 X133.797 Y104.206 E9.7509
G1 X134.416 Y104.462 E9.77318
G1 X134.999 Y104.789 E9.79541
G1 X135.54 Y105.184 E9.81769
G1 X136.029 Y105.64 E9.83993
G1 X136.461 Y106.151 E9.86219
G1 X136.719 Y106.529 E9.87741
G1 X136.925 Y106.858 E9.89032
G1 X137.246 Y107.445 E9.91257
G1 X137.494 Y108.067 E9.93484
G1 X137.666 Y108.713 E9.95708
G1 X137.761 Y109.375 E9.97932
G1 X137.779 Y109.831 E9.9945
G1 X137.776 Y125.236 E10.50687
G1 X137.736 Y125.904 E10.52913
G1 X137.616 Y126.562 E10.55137
G1 X137.419 Y127.202 E10.57365
G1 X137.147 Y127.813 E10.59589
G1 X136.751 Y128.464 E10.62124
G1 X136.583 Y128.702 E10.63092
G1 X136.165 Y129.225 E10.65319
G1 X135.688 Y129.694 E10.67544
G1 X135.158 Y130.103 E10.69771
G1 X134.584 Y130.445 E10.71993
G1 X134.01 Y130.703 E10.74086
G1 X133.707 Y130.819 E10.75165
G1 X133.069 Y131.02 E10.7739
G1 X132.412 Y131.144 E10.79614
G1 X131.705 Y131.189 E10.8197
G1 X103.314 Y131.191 E11.76399
G1 X102.647 Y131.151 E11.78622
G1 X101.988 Y131.032 E11.80849
G1 X101.639 Y130.935 E11.82054
G1 X101.371 Y130.851 E11.82988
G1 X100.746 Y130.613 E11.85212
G1 X100.153 Y130.302 E11.87439
G1 X99.602 Y129.923 E11.89664
G1 X99.1 Y129.481 E11.91888
G1 X98.661 Y128.99 E11.94079
G1 X98.441 Y128.713 E11.95255
G1 X98.057 Y128.165 E11.97481
G1 X97.741 Y127.575 E11.99707
G1 X97.497 Y126.952 E12.01932
G1 X97.33 Y126.304 E12.04158
G1 X97.241 Y125.641 E12.06383
G1 X97.226 Y125.231 E12.07748
G1 X97.224 Y109.766 E12.59184
G1 X97.264 Y109.098 E12.6141
G1 X97.383 Y108.44 E12.63634
G1 X97.58 Y107.8 E12.65861
G1 X97.852 Y107.189 E12.68086
G1 X98.249 Y106.536 E12.70628
G1 X98.417 Y106.298 E12.71596
G1 X98.835 Y105.775 E12.73823
G1 X99.312 Y105.306 E12.76048
M204 S5000
M205 X30 Y30
G0 F3600 X99.61 Y105.577
M204 S500
M205 X20 Y20
G1 F1800 X100.125 Y105.189 E12.78193
G1 X100.684 Y104.867 E12.80338
G1 X101.133 Y104.671 E12.81968
G1 X101.436 Y104.555 E12.83047
G1 X102.051 Y104.362 E12.85191
G1 X102.685 Y104.247 E12.87334
G1 X103.295 Y104.211 E12.89366
G1 X131.706 Y104.209 E13.83862
G1 X132.349 Y104.249 E13.86005
G1 X132.983 Y104.368 E13.8815
G1 X133.4 Y104.493 E13.89598
G1 X133.667 Y104.585 E13.90537
G1 X134.262 Y104.832 E13.9268
G1 X134.822 Y105.151 E13.94824
G1 X135.339 Y105.537 E13.9697
G1 X135.803 Y105.984 E13.99112
G1 X136.38 Y106.741 E14.02278
G1 X136.586 Y107.07 E14.03569
G1 X136.894 Y107.637 E14.05715
G1 X137.129 Y108.237 E14.07859
G1 X137.288 Y108.862 E14.10004
G1 X137.369 Y109.502 E14.12149
G1 X137.379 Y109.831 E14.13244
G1 X137.376 Y125.236 E14.64481
G1 X137.336 Y125.879 E14.66624
G1 X137.217 Y126.513 E14.6877
G1 X137.02 Y127.127 E14.70914
G1 X136.748 Y127.712 E14.7306
G1 X136.424 Y128.234 E14.75103
G1 X136.256 Y128.472 E14.76072
G1 X135.853 Y128.974 E14.78213
G1 X135.39 Y129.423 E14.80359
G1 X134.875 Y129.811 E14.82503
G1 X134.316 Y130.133 E14.84649
G1 X133.867 Y130.329 E14.86278
G1 X133.564 Y130.445 E14.87357
G1 X132.949 Y130.638 E14.89501
G1 X132.315 Y130.753 E14.91644
G1 X131.705 Y130.789 E14.93677
G1 X103.314 Y130.791 E15.88106
G1 X102.671 Y130.751 E15.90248
G1 X101.759 Y130.553 E15.93352
G1 X101.491 Y130.469 E15.94287
G1 X100.889 Y130.238 E15.96431
G1 X100.32 Y129.935 E15.98575
G1 X99.793 Y129.564 E16.00719
G1 X99.316 Y129.13 E16.02864
G1 X98.974 Y128.741 E16.04586
G1 X98.754 Y128.464 E16.05763
G1 X98.385 Y127.935 E16.07908
G1 X98.085 Y127.365 E16.10051
G1 X97.857 Y126.762 E16.12195
G1 X97.705 Y126.135 E16.14341
G1 X97.626 Y125.231 E16.17359
G1 X97.624 Y109.766 E16.68796
G1 X97.664 Y109.122 E16.70942
G1 X97.783 Y108.489 E16.73084
G1 X97.98 Y107.875 E16.75229
G1 X98.251 Y107.29 E16.77373
G1 X98.576 Y106.766 E16.79424
G1 X98.744 Y106.528 E16.80393
G1 X99.147 Y106.026 E16.82534
G1 X99.61 Y105.577 E16.84679
M204 S5000
M205 X30 Y30
G1 F2400 E11.84679
G1 F300 Z1.2
;MESH:listwa_mocujaca.stl
G0 F3600 X107.348 Y114.245 Z1.2
M204 S500
M205 X20 Y20
;TYPE:WALL-INNER
G1 F300 Z0.2
G1 F2400 E16.84679
G1 F1800 X106.755 Y114.729 E16.87225
G1 X106.266 Y115.318 E16.89771
G1 X105.903 Y115.989 E16.92308
G1 X105.677 Y116.721 E16.94856
G1 X105.599 Y117.482 E16.97401
G1 X105.669 Y118.243 E16.99943
G1 X105.888 Y118.976 E17.02487
G1 X106.245 Y119.652 E17.0503
G1 X106.729 Y120.245 E17.07576
G1 X107.318 Y120.734 E17.10122
G1 X107.989 Y121.097 E17.12659
G1 X108.721 Y121.323 E17.15207
G1 X109.482 Y121.401 E17.17752
G1 X110.243 Y121.331 E17.20293
G1 X110.976 Y121.112 E17.22838
G1 X111.652 Y120.755 E17.2538
G1 X112.245 Y120.271 E17.27926
G1 X112.734 Y119.682 E17.30473
G1 X113.097 Y119.011 E17.3301
G1 X113.323 Y118.279 E17.35558
G1 X113.401 Y117.518 E17.38102
G1 X113.331 Y116.757 E17.40644
G1 X113.112 Y116.024 E17.43189
G1 X112.755 Y115.348 E17.45731
G1 X112.271 Y114.755 E17.48277
G1 X111.682 Y114.266 E17.50823
G1 X111.011 Y113.903 E17.53361
G1 X110.279 Y113.677 E17.55909
G1 X109.518 Y113.599 E17.58453
G1 X108.757 Y113.669 E17.60995
G1 X108.024 Y113.888 E17.63539
G1 X107.348 Y114.245 E17.66082
M204 S5000
M205 X30 Y30
G0 F3600 X107.293 Y114.162
G0 X108.009 Y113.851
G0 X108.75 Y113.63
G0 X109.371 Y113.574
G0 X123.293 Y114.162
G0 X123.348 Y114.245
M204 S500
M205 X20 Y20
G1 F1800 X122.755 Y114.729 E17.68628
G1 X122.266 Y115.318 E17.71174
G1 X121.903 Y115.989 E17.73711
G1 X121.677 Y116.721 E17.76259
G1 X121.599 Y117.482 E17.78804
G1 X121.669 Y118.243 E17.81346
G1 X121.888 Y118.976 E17.8389
G1 X122.245 Y119.652 E17.86433
G1 X122.729 Y120.245 E17.88979
G1 X123.318 Y120.734 E17.91525
G1 X123.989 Y121.097 E17.94062
G1 X124.721 Y121.323 E17.9661
G1 X125.482 Y121.401 E17.99155
G1 X126.243 Y121.331 E18.01696
G1 X126.976 Y121.112 E18.04241
G1 X127.652 Y120.755 E18.06783
G1 X128.245 Y120.271 E18.09329
G1 X128.734 Y119.682 E18.11876
G1 X129.097 Y119.011 E18.14413
G1 X129.323 Y118.279 E18.16961
G1 X129.401 Y117.518 E18.19505
G1 X129.331 Y116.757 E18.22047
G1 X129.112 Y116.024 E18.24592
G1 X128.755 Y115.348 E18.27134
G1 X128.271 Y114.755 E18.2968
G1 X127.682 Y114.266 E18.32226
G1 X127.011 Y113.903 E18.34764
G1 X126.279 Y113.677 E18.37312
G1 X125.518 Y113.599 E18.39856
G1 X124.757 Y113.669 E18.42398
G1 X124.024 Y113.888 E18.44942
G1 X123.348 Y114.245 E18.47485
M204 S5000
M205 X30 Y30
G0 F3600 X123.293 Y114.162
G0 X124.009 Y113.851
G0 X124.75 Y113.63
G0 X125.518 Y113.559
G0 X126.286 Y113.638
G0 X127.026 Y113.867
G0 X127.704 Y114.233
G0 X128.299 Y114.727
G0 X128.788 Y115.326
G0 X129.149 Y116.009
G0 X131.516 Y124.932
G0 X131.586 Y125.002
M204 S500
M205 X20 Y20
G1 F1800 X103.416 Y125.002 E19.41179
G1 X103.414 Y110.198 E19.90417
G1 X103.414 Y109.998 E19.91082
G1 X103.614 Y109.998 E19.91513
G1 X131.586 Y109.998 E20.84548
G1 X131.586 Y125.002 E21.34452
M204 S5000
M205 X30 Y30
G0 F3600 X131.516 Y124.932
G0 X129.149 Y116.009
G0 X128.788 Y115.326
G0 X128.299 Y114.727
G0 X127.704 Y114.233
G0 X127.026 Y113.867
G0 X126.286 Y113.638
G0 X125.518 Y113.559
G0 X124.75 Y113.63
G0 X124.331 Y113.754
G0 X123.255 Y114.192
G0 X123.57 Y114.58
M204 S500
M205 X20 Y20
;TYPE:WALL-OUTER
G1 F1800 X123.038 Y115.014 E21.36735
G1 X122.599 Y115.543 E21.39022
G1 X122.274 Y116.145 E21.41297
G1 X122.071 Y116.801 E21.43581
G1 X122.001 Y117.484 E21.45865
G1 X122.064 Y118.167 E21.48146
G1 X122.26 Y118.824 E21.50426
G1 X122.58 Y119.43 E21.52706
G1 X123.014 Y119.962 E21.54989
G1 X123.543 Y120.401 E21.57276
G1 X124.145 Y120.726 E21.59551
G1 X124.801 Y120.929 E21.61835
G1 X125.484 Y120.999 E21.64118
G1 X126.167 Y120.936 E21.664
G1 X126.824 Y120.74 E21.6868
G1 X127.43 Y120.42 E21.70959
G1 X127.962 Y119.986 E21.73243
G1 X128.401 Y119.457 E21.75529
G1 X128.726 Y118.855 E21.77805
G1 X128.929 Y118.199 E21.80089
G1 X128.999 Y117.516 E21.82372
G1 X128.936 Y116.833 E21.84654
G1 X128.74 Y116.176 E21.86934
G1 X128.42 Y115.57 E21.89213
G1 X127.986 Y115.038 E21.91497
G1 X127.457 Y114.599 E21.93783
G1 X126.855 Y114.274 E21.96059
G1 X126.199 Y114.071 E21.98343
G1 X125.516 Y114.001 E22.00626
G1 X124.833 Y114.064 E22.02908
G1 X124.176 Y114.26 E22.05188
G1 X123.57 Y114.58 E22.07467
M204 S5000
M205 X30 Y30
G0 F3600 X123.415 Y114.706
G0 X123.1 Y114.319
G0 X131.516 Y110.068
G0 X131.873 Y109.667
M204 S500
M205 X20 Y20
G1 F1800 X131.986 Y109.825 E22.08113
G1 X131.986 Y125.175 E22.59168
G1 X131.873 Y125.333 E22.59814
G1 X131.682 Y125.402 E22.60489
G1 X103.318 Y125.402 E23.54828
G1 X103.127 Y125.333 E23.55504
G1 X103.016 Y125.178 E23.56138
G1 X103.014 Y109.835 E24.07169
G1 X103.014 Y109.825 E24.07202
G1 X103.127 Y109.667 E24.07848
G1 X103.318 Y109.598 E24.08524
G1 X103.328 Y109.598 E24.08557
G1 X131.682 Y109.598 E25.02863
G1 X131.873 Y109.667 E25.03538
M204 S5000
M205 X30 Y30
G0 F3600 X131.986 Y109.825
G0 X131.986 Y109.831
G0 X131.516 Y110.068
G0 X108.75 Y113.63
G0 X108.331 Y113.754
G0 X107.255 Y114.192
G0 X107.57 Y114.58
M204 S500
M205 X20 Y20
G1 F1800 X107.038 Y115.014 E25.05822
G1 X106.599 Y115.543 E25.08108
G1 X106.274 Y116.145 E25.10383
G1 X106.071 Y116.801 E25.12667
G1 X106.001 Y117.484 E25.14951
G1 X106.064 Y118.167 E25.17232
G1 X106.26 Y118.824 E25.19513
G1 X106.58 Y119.43 E25.21792
G1 X107.014 Y119.962 E25.24075
G1 X107.543 Y120.401 E25.26362
G1 X108.145 Y120.726 E25.28637
G1 X108.801 Y120.929 E25.30921
G1 X109.484 Y120.999 E25.33205
G1 X110.167 Y120.936 E25.35486
G1 X110.824 Y120.74 E25.37766
G1 X111.43 Y120.42 E25.40046
G1 X111.962 Y119.986 E25.42329
G1 X112.401 Y119.457 E25.44616
G1 X112.726 Y118.855 E25.46891
G1 X112.929 Y118.199 E25.49175
G1 X112.999 Y117.516 E25.51459
G1 X112.936 Y116.833 E25.5374
G1 X112.74 Y116.176 E25.5602
G1 X112.42 Y115.57 E25.583
G1 X111.986 Y115.038 E25.60583
G1 X111.457 Y114.599 E25.6287
G1 X110.855 Y114.274 E25.65145
G1 X110.199 Y114.071 E25.67429
G1 X109.516 Y114.001 E25.69712
G1 X108.833 Y114.064 E25.71994
G1 X108.176 Y114.26 E25.74274
G1 X107.57 Y114.58 E25.76553
M204 S5000
M205 X30 Y30
G0 F3600 X107.415 Y114.706
G0 X107.1 Y114.319
G0 X107.132 Y113.918
M204 S500
M205 X20 Y20
;TYPE:SKIN
G1 F1800 X106.48 Y114.45 E25.79352
G1 X105.941 Y115.098 E25.82156
G1 X105.542 Y115.837 E25.84949
G1 X105.293 Y116.643 E25.87755
G1 X105.207 Y117.48 E25.90553
G1 X105.285 Y118.317 E25.93349
G1 X105.525 Y119.124 E25.9615
G1 X105.918 Y119.868 E25.98948
G1 X106.45 Y120.52 E26.01747
G1 X107.098 Y121.059 E26.0455
G1 X107.837 Y121.458 E26.07344
G1 X108.643 Y121.707 E26.10149
G1 X109.48 Y121.793 E26.12948
G1 X110.317 Y121.715 E26.15744
G1 X111.124 Y121.475 E26.18544
G1 X111.868 Y121.082 E26.21343
G1 X112.52 Y120.55 E26.24142
G1 X113.059 Y119.902 E26.26945
G1 X113.458 Y119.163 E26.29738
